X:1
T:Title
%%score 1 { 2 | ( 3 4 ) }
L:1/8
Q:1/4=100
M:4/4
K:C
V:1 treble nm="Akkordion"
V:2 treble nm="Grand Piano"
V:3 bass 
V:4 bass 
V:1
 z8 | z8 | z8 | z8 | G2 ^F>G A2 B2 | A4 G4 | c2 EF G2 G2 | G8 | G2 A>A B2 c2 | d4 ^c4 | %10
 c2 EE B2 A2 | G8 | G2 G>^G _B2 c>c | _B4 B4 | G2 G>^G _B2 c2 | _B8 | G2 G>G _B2 c2 | d4 B4 | %18
 A2 cc B2 A2 | G8 | z8 | z8 | z8 | z8 | z8 | z8 | %26
 z8[Q:1/4=98][Q:1/4=97][Q:1/4=95][Q:1/4=94][Q:1/4=92][Q:1/4=91][Q:1/4=89][Q:1/4=88][Q:1/4=86][Q:1/4=84][Q:1/4=83][Q:1/4=81][Q:1/4=80][Q:1/4=78][Q:1/4=77] | %27
 z8 |] %28
V:2
 C2 E>F G2 AB | c4 d4 | e2 cA d3 [Ec] | [Ec]8 | [EG]2 [E^F]>[EG] [_EFA]2 [EFB]2 | [DFA]4 [DFG]4 | %6
w: John~P.~Marshall * * * * *||||||
 [Ec]2 [CE][DF] [EG]2 [B,G]2 | [CEG]2 G,>G, C2 E2 | [EG]2 [EGA]>[EGA] [_EGB]2 [EGc]2 | %9
w: |||
 [DGd]4 [EG^c]4 | [EGc]2 [CE][CE] [D^FB]2 [DFA]2 | [G,B,DG]2 G>G G2 G2 | %12
w: |||
 [_EG]2 [EG]>[F^G] [=G_B]2 [EGc]>[EGc] | [_E^G_B]4 [DGB]4 | [_EG]2 [EG]>[F^G] [=G_B]2 [EGc]2 | %15
w: |||
 [D^G_B]2 [DGB]>[DGB] [_EGB]2 [FGB]2 | [_EG]2 [EG]>[EG] [G_B]2 [Gc]2 | [Gd]4 [GB]4 | %18
w: |||
 [EA]2 [Ec][Ec] [EB]2 [EA]2 | G8 | C2 E2 G2 AB | c4 A4 | G2 GG G2 G2 | [EG]8 | G2 G>G A2 G2 | %25
w: |||||||
 c4 d4 | e2 cA d3 [Ec] | [Ec]8 |] %28
w: |||
V:3
 C,2 E,>F, G,2 A,B, | C4 [A,C^F]4 | [G,CG]2 [G,EG][G,CG] [G,B,F]3[K:bass] [C,C] | [C,C]8 | %4
 [C,C]2 [G,,G,]2 [C,C]2 [G,,G,]2 | [B,,B,]2 [G,,G,]2 [B,,B,]2 [G,,G,]2 | %6
 [C,C]2 [G,,G,]2 [C,C]2 [G,,G,]2 | [C,,C,]2 G,,>G,, C,2 E,2 | [C,C]2 [G,,G,]2 [C,C]2 [G,,G,]2 | %9
 [B,,B,]4 [_B,,_B,]4 | [A,,A,]2 [A,,A,]2 [D,,D,]2 [D,,D,]2 | G,,2 G,>G, G,2 G,2 | %12
 [_E,,_E,]2 [_B,,,_B,,]2 [E,,E,]2 [B,,,B,,]2 | [F,,F,]2 [_B,,,_B,,]2 [F,,F,]2 [B,,,B,,]2 | %14
 [_E,,_E,]2 [_B,,,_B,,]2 [E,,E,]2 [B,,,B,,]2 | [F,,F,]2 [_B,,,_B,,]>[B,,,B,,] [C,,C,]2 [D,,D,]2 | %16
 [_E,,_E,]2 [E,_B,]>[E,B,] [E,B,]2 [E,B,]2 | [D,B,]4 [D,D]4 | [C,A,]2 [C,A,][C,A,] [D,D]2 [D,C]2 | %19
 [G,B,D]8 | C,2 .E,>[K:treble]F G,2 A,B, | C4 A,4 | [G,CE]2 [G,CE][G,CE] [G,DF]2[K:bass] [G,B,D]2 | %23
 [C,C]8 | [CE]2 [CE]>[CE][K:treble] [_B,CE]2 [B,CE]2 | [A,CF]4 [A,C^F]4 | %26
 [G,CG]2 [G,EG][G,CG] [G,B,F]3[K:bass] [C,C] | [C,C]8 |] %28
V:4
 x8 | x8 | x7[K:bass] x | x8 | x8 | x8 | x8 | x8 | x8 | x8 | x8 | x8 | x8 | x8 | x8 | x8 | x8 | %17
 x8 | x8 | x8 | z2 z F,[K:treble] z4 | x8 | x6[K:bass] x2 | x8 | x4[K:treble] x4 | x8 | %26
 x7[K:bass] x | x8 |] %28

